status-icons/white-red.svg

<?xml version="1.0" encoding="UTF-8" standalone="no"?>
<!-- Created with Inkscape (http://www.inkscape.org/) -->

<svg
   xmlns:dc="http://purl.org/dc/elements/1.1/"
   xmlns:cc="http://creativecommons.org/ns#"
   xmlns:rdf="http://www.w3.org/1999/02/22-rdf-syntax-ns#"
   xmlns:svg="http://www.w3.org/2000/svg"
   xmlns="http://www.w3.org/2000/svg"
   xmlns:xlink="http://www.w3.org/1999/xlink"
   xmlns:sodipodi="http://sodipodi.sourceforge.net/DTD/sodipodi-0.dtd"
   xmlns:inkscape="http://www.inkscape.org/namespaces/inkscape"
   id="svg2"
   sodipodi:version="0.32"
   inkscape:version="0.48.4 r9939"
   width="128"
   height="128"
   version="1.0"
   sodipodi:docname="white-red.svg"
   inkscape:output_extension="org.inkscape.output.svg.inkscape">
  <metadata
     id="metadata7">
    <rdf:RDF>
      <cc:Work
         rdf:about="">
        <dc:format>image/svg+xml</dc:format>
        <dc:type
           rdf:resource="http://purl.org/dc/dcmitype/StillImage" />
      </cc:Work>
    </rdf:RDF>
  </metadata>
  <defs
     id="defs5">
    <linearGradient
       id="linearGradient3749">
      <stop
         style="stop-color:#ffffff;stop-opacity:1;"
         offset="0"
         id="stop3751" />
      <stop
         style="stop-color:#ffffff;stop-opacity:0.49372385"
         offset="1"
         id="stop3753" />
    </linearGradient>
    <inkscape:perspective
       sodipodi:type="inkscape:persp3d"
       inkscape:vp_x="0 : 526.18109 : 1"
       inkscape:vp_y="0 : 1000 : 0"
       inkscape:vp_z="744.09448 : 526.18109 : 1"
       inkscape:persp3d-origin="372.04724 : 350.78739 : 1"
       id="perspective9" />
    <linearGradient
       inkscape:collect="always"
       xlink:href="#linearGradient3749"
       id="linearGradient3755"
       x1="388.10263"
       y1="408.19211"
       x2="473.62189"
       y2="474.51178"
       gradientUnits="userSpaceOnUse" />
    <linearGradient
       inkscape:collect="always"
       xlink:href="#linearGradient3749"
       id="linearGradient3799"
       gradientUnits="userSpaceOnUse"
       x1="388.10263"
       y1="408.19211"
       x2="473.62189"
       y2="474.51178"
       gradientTransform="translate(445.16772,-336.96972)" />
    <linearGradient
       inkscape:collect="always"
       xlink:href="#linearGradient3749"
       id="linearGradient3802"
       gradientUnits="userSpaceOnUse"
       gradientTransform="translate(452.15988,-85.251845)"
       x1="388.10263"
       y1="408.19211"
       x2="473.62189"
       y2="474.51178" />
    <filter
       inkscape:collect="always"
       id="filter3956">
      <feGaussianBlur
         inkscape:collect="always"
         stdDeviation="0.75192423"
         id="feGaussianBlur3958" />
    </filter>
    <filter
       inkscape:collect="always"
       id="filter3976">
      <feGaussianBlur
         inkscape:collect="always"
         stdDeviation="5.2427478"
         id="feGaussianBlur3978" />
    </filter>
  </defs>
  <sodipodi:namedview
     inkscape:window-height="633"
     inkscape:window-width="1280"
     inkscape:pageshadow="2"
     inkscape:pageopacity="0.0"
     guidetolerance="10.0"
     gridtolerance="10.0"
     objecttolerance="10.0"
     borderopacity="1.0"
     bordercolor="#666666"
     pagecolor="#ffffff"
     id="base"
     showgrid="false"
     showguides="true"
     inkscape:guide-bbox="true"
     inkscape:zoom="1.8101934"
     inkscape:cx="105.19169"
     inkscape:cy="21.931261"
     inkscape:window-x="0"
     inkscape:window-y="71"
     inkscape:current-layer="svg2"
     inkscape:window-maximized="0" />
  <g
     inkscape:groupmode="layer"
     id="layer1"
     inkscape:label="L1"
     transform="translate(0,-352)" />
  <g
     inkscape:groupmode="layer"
     id="layer2"
     inkscape:label="L2"
     transform="translate(0,-352)" />
  <g
     inkscape:groupmode="layer"
     id="layer3"
     inkscape:label="L3"
     transform="translate(0,-352)" />
  <g
     id="g4104">
    <rect
       y="32.704834"
       x="2.7056646"
       height="93.054291"
       width="123.11159"
       id="rect3224"
       style="fill:#e6e6e6;fill-opacity:1;stroke:#7f7f7f;stroke-width:0.70444643;stroke-miterlimit:4;stroke-opacity:1;stroke-dasharray:none" />
    <path
       transform="matrix(0.25795007,0,0,0.25795007,2.3534415,2.2098526)"
       sodipodi:nodetypes="cscscsc"
       id="path3638"
       d="m 480,341.66523 c 0,0 -15.54108,43.34834 -37.39781,59.32559 -19.69471,14.39682 -44.19159,17.07409 -44.19159,17.07409 0,0 -10.88579,23.21272 -24.61793,36.49139 -17.4126,16.8376 -57.76634,26.60308 -57.76634,26.60308 0,0 68.33044,2.69683 111.28026,-35.45309 C 475.21385,403.15296 482.45924,342.86703 480,341.66523 z"
       style="opacity:0.48507463;fill:#7d7d7d;fill-opacity:1;fill-rule:evenodd;stroke:none;filter:url(#filter3976)"
       inkscape:connector-curvature="0" />
    <rect
       y="2.2504869"
       x="2.6090746"
       height="30.657484"
       width="123.30477"
       id="rect2386"
       style="fill:#eb1515;fill-opacity:1;stroke:#000000;stroke-width:0.51126605000000003;stroke-miterlimit:4;stroke-opacity:1;stroke-dasharray:none" />
    <path
       transform="matrix(0.98775065,0,0,1,0.78849773,0)"
       sodipodi:nodetypes="ccccsccsc"
       id="path3158"
       d="m 2.3963011,29.025504 0,-26.4362481 L 126.02234,3.3275444 126.3449,28.61439 c 0,0 -0.23047,-8.54709 -2.12489,-14.83136 C 123.12528,10.151558 120.26455,6.5723421 113.79244,6.4087559 91.100558,6.4629402 24.828372,5.98673 13.911967,5.8738749 6.3926469,6.4528754 5.8636541,10.108636 4.3578143,13.485942 2.8201624,16.9346 2.7963539,23.583034 2.3963011,29.025504 z"
       style="opacity:0.16791047;fill:#000000;fill-opacity:1;fill-rule:evenodd;stroke:none;filter:url(#filter3956)"
       inkscape:connector-curvature="0" />
    <text
       style="font-size:239.92614746px;font-style:normal;font-variant:normal;font-weight:normal;font-stretch:normal;text-align:start;line-height:125%;letter-spacing:0px;word-spacing:0px;writing-mode:lr-tb;text-anchor:start;fill:#000000;fill-opacity:1;stroke:none"
       xml:space="preserve"
       id="text2987"
       transform="scale(0.99393719,1.0060998)"
       y="109.75757"
       x="123.35856"
       sodipodi:linespacing="125%"><tspan
         style="font-size:89.81104279px;font-style:normal;font-variant:normal;font-weight:normal;font-stretch:normal;text-align:center;text-anchor:middle;fill:#000000;font-family:Sans"
         id="tspan2989"
         y="109.75757"
         x="66.825645">TX</tspan></text>
  </g>
</svg>

<svg xmlns="http://www.w3.org/2000/svg" width="128" height="128"><defs><filter id="A"><feGaussianBlur stdDeviation=".752"/></filter><filter id="B"><feGaussianBlur stdDeviation="5.243"/></filter></defs><path d="M2.706 32.705h123.112v93.054H2.706z" fill="#e6e6e6" stroke="#7f7f7f" stroke-width=".704"/><path transform="matrix(.25795 0 0 .25795 2.353442 2.209853)" d="M480 341.665s-15.54 43.348-37.398 59.326c-19.695 14.397-44.192 17.074-44.192 17.074s-10.886 23.213-24.618 36.49c-17.413 16.838-57.766 26.603-57.766 26.603s68.33 2.697 111.28-35.453c47.907-42.553 55.153-102.84 52.693-104.04z" opacity=".485" fill="#7d7d7d" fill-rule="evenodd" filter="url(#B)"/><path d="M2.61 2.25h123.305v30.657H2.61z" fill="#eb1515" stroke="#000" stroke-width=".511"/><path transform="matrix(.987751 0 0 1 .788498 0)" d="M2.396 29.026V2.59l123.626.738.323 25.287s-.23-8.547-2.125-14.83c-1.095-3.63-3.955-7.21-10.428-7.374-22.692.054-88.964-.422-99.88-.535-7.52.58-8.048 4.235-9.554 7.612-1.538 3.45-1.56 10.097-1.962 15.54z" opacity=".168" fill-rule="evenodd" filter="url(#A)"/><text xml:space="preserve" transform="scale(.99393719 1.0060998)" y="109.758" x="123.359" font-size="239.926" letter-spacing="0" word-spacing="0" writing-mode="lr-tb"><tspan y="109.758" x="66.826" font-size="89.811" font-weight="normal" text-anchor="middle" font-family="Sans">TX</tspan></text></svg>
